!!!OTL: 203d. Das betrogene Maedchen. (Drei Roeselein.)
!!!ARE: Europa, Mitteleuropa, Deutschland, Schlesien
!!!SCT: E0203C
!!!TXL: @@DE
!!!YEM: Copyright 1995, estate of Helmut Schaffrath.
**kern	**text
*ICvox	*
*M3/4	*
*k[f#]	*
*G:	*
=1	=1
!LO:TX:a:t=Mäßig langſam.	!
!LO:TX:a:t=Hoffmann, Schleſ. VL. Rr. 138.	!
{4d	Jch
4g	gieng
8aL	ʒum
8ccJ	.
=2	=2
4.b/	küh-
8a	-len
8g}	Wein,
{8g	ich
=3	=3
8a	trank
8b/	ihn
8ccL	a-
8bJ	.
8ddL	-ber
8bJ	.
=4	=4
2a	nicht,
4r}	.
=5	=5
{8g	ich_ſuch-
8b/	-te
4.dd	mir
8cc	mein'
=6	=6
8b/	al-
8a	-ler-
8dd	-ſchön-
8cc	-ſten
8b}	Schatʒ,
{8a	ich
=7	=7
8dd	ſand
8cc	ihn
4b/	a-
4a	-ber
=8	=8
2g	nicht.
4r}	.
==	==
!!!AGN: erzaehlendes Volks - Lied, Todes - Ahnung; betrogene Liebe
!!!ONB: ESAC (Essen Associative Code) Database: ERK1
!!!AMT: simple triple
!!!AIN: vox
!!!EED: Helmut Schaffrath
!!!EEV: 1.0
!!!GTL: Todtensagen (Todesahnung, Geisterliebe, Grabesstimmen)
!!!URL-scan: https://rosdok.uni-rostock.de/mcrviewer/recordIdentifier/rosdok_ppn745146120/iview2/phys_0676.iview2?x=-128.7727644188933&y=2029.9382472815923&scale=0.5870222003877484&rotation=0&layout=singlePageLayout
!!!ENC: Anna Maria Matuszewska
!!!EEV: 2024/06/12
*-	*-
